svgs/thin/mug-tea.svg

<svg xmlns="http://www.w3.org/2000/svg" viewBox="0 0 576 512"><!--! Font Awesome Pro 6.0.0-alpha3 by @fontawesome - https://fontawesome.com License - https://fontawesome.com/license (Commercial License) --><path d="M464 64H55.1c-6.375 0-12.5 2.5-17 7S31.1 81.63 31.1 88L31.1 352c0 53 43 96 96 96h192c53 0 96-43 96-96L416 288h48C525.8 288 576 237.8 576 176S525.8 64 464 64zM400 352c0 44.11-35.89 80-80 80H128c-44.11 0-80-35.89-80-80V88c0-5.129 4.172-8 8-8h96v40L105.4 166.6c-6.002 6.002-9.375 14.14-9.375 22.63L95.1 256c0 17.67 14.33 32 32 32h64c17.67 0 32-14.33 32-32l-.0003-66.75c0-8.486-3.374-16.62-9.374-22.63L168 120V80h232V352zM160 134.6l43.31 43.31C206.3 180.1 208 184.1 208 189.3V256c0 8.822-7.178 16-16 16H128C119.2 272 112 264.8 112 256V189.3c0-4.273 1.666-8.291 4.686-11.31L160 134.6zM464 272H416v-192h48c52.94 0 96 43.06 96 96S516.9 272 464 272z"/></svg>

<svg xmlns="http://www.w3.org/2000/svg" viewBox="0 0 576 512"><!-- Font Awesome Pro 6.0.0-alpha2 by @fontawesome - https://fontawesome.com License - https://fontawesome.com/license (Commercial License) --><path d="M464 64H56C49.625 64 43.5 66.5 39 71S32 81.625 32 88V352C32 405 75 448 128 448H320C373 448 416 405 416 352V288H464C525.75 288 576 237.75 576 176S525.75 64 464 64ZM400 352C400 396.111 364.111 432 320 432H128C83.889 432 48 396.111 48 352V88C48 82.871 52.172 80 56 80H152V120L105.373 166.627C99.371 172.629 96 180.768 96 189.254V256C96 273.674 110.328 288 128 288H192C209.674 288 224 273.674 224 256V189.254C224 180.768 220.629 172.629 214.629 166.627L168 120V80H400V352ZM160 134.627L203.312 177.939C206.336 180.963 208 184.98 208 189.254V256C208 264.822 200.822 272 192 272H128C119.178 272 112 264.822 112 256V189.254C112 184.98 113.666 180.963 116.686 177.941L160 134.627ZM464 272H416V80H464C516.938 80 560 123.062 560 176S516.938 272 464 272Z"/></svg>
